docs/images/icons/cursor_development2.svg

<svg width="122" height="39" viewBox="0 0 122 39" fill="none" xmlns="http://www.w3.org/2000/svg">
<rect x="24.5" y="12.5" width="97" height="26" rx="13" fill="#31B970"/>
<rect x="24.5" y="12.5" width="97" height="26" rx="13" stroke="#64D598"/>
<path d="M39.21 20.1357C40.167 20.1357 40.9486 20.4365 41.5547 21.0381C42.1608 21.6396 42.4639 22.4189 42.4639 23.376C42.4639 24.3376 42.1562 25.1214 41.541 25.7275C40.9258 26.3291 40.1328 26.6299 39.1621 26.6299H36.8789V30H35.3477V20.1357H39.21ZM36.8789 25.3447H38.8066C39.472 25.3447 39.987 25.1738 40.3516 24.832C40.7161 24.4857 40.8984 24.0026 40.8984 23.3828C40.8984 22.7585 40.7161 22.2777 40.3516 21.9404C39.987 21.5986 39.472 21.4277 38.8066 21.4277H36.8789V25.3447ZM43.6602 22.5762H45.0752V23.8271H45.1025C45.2165 23.4124 45.4352 23.0889 45.7588 22.8564C46.0778 22.6195 46.4561 22.501 46.8936 22.501C47.0986 22.501 47.2627 22.5192 47.3857 22.5557V23.9434C47.2217 23.8796 47.0052 23.8477 46.7363 23.8477C46.2487 23.8477 45.8613 24.0049 45.5742 24.3193C45.2871 24.6292 45.1436 25.0462 45.1436 25.5703V30H43.6602V22.5762ZM51.2275 30.0889C50.152 30.0889 49.2975 29.7471 48.6641 29.0635C48.0306 28.3799 47.7139 27.4548 47.7139 26.2881C47.7139 25.126 48.0329 24.2008 48.6709 23.5127C49.3044 22.8245 50.1566 22.4805 51.2275 22.4805C52.2985 22.4805 53.1507 22.8223 53.7842 23.5059C54.4176 24.194 54.7344 25.1214 54.7344 26.2881C54.7344 27.4548 54.4176 28.3799 53.7842 29.0635C53.1553 29.7471 52.3031 30.0889 51.2275 30.0889ZM51.2275 28.8584C51.8564 28.8584 52.3486 28.6328 52.7041 28.1816C53.055 27.7305 53.2305 27.0993 53.2305 26.2881C53.2305 25.4769 53.055 24.8457 52.7041 24.3945C52.3486 23.9388 51.8564 23.7109 51.2275 23.7109C50.5986 23.7109 50.1064 23.9388 49.751 24.3945C49.3955 24.8503 49.2178 25.4814 49.2178 26.2881C49.2178 27.0947 49.3955 27.7259 49.751 28.1816C50.1064 28.6328 50.5986 28.8584 51.2275 28.8584ZM59.0752 28.749C59.6768 28.749 60.1621 28.5234 60.5312 28.0723C60.8958 27.6165 61.0781 27.015 61.0781 26.2676C61.0781 25.5156 60.8958 24.9095 60.5312 24.4492C60.1621 23.9889 59.6768 23.7588 59.0752 23.7588C58.4782 23.7588 57.9997 23.9867 57.6396 24.4424C57.2842 24.8981 57.1064 25.5065 57.1064 26.2676C57.1064 27.0241 57.2842 27.6279 57.6396 28.0791C57.9997 28.5257 58.4782 28.749 59.0752 28.749ZM59.082 32.6729C58.1888 32.6729 57.4505 32.4814 56.8672 32.0986C56.2839 31.7158 55.9557 31.2077 55.8828 30.5742H57.3799C57.4619 30.8613 57.6624 31.0892 57.9814 31.2578C58.3005 31.4264 58.6878 31.5107 59.1436 31.5107C59.7314 31.5107 60.2008 31.3672 60.5518 31.0801C60.9027 30.793 61.0781 30.4079 61.0781 29.9248V28.7012H61.0439C60.5837 29.5534 59.7975 29.9795 58.6855 29.9795C57.7559 29.9795 57.0085 29.6423 56.4434 28.9678C55.8737 28.2887 55.5889 27.3864 55.5889 26.2607C55.5889 25.1169 55.8737 24.2031 56.4434 23.5195C57.0085 22.8405 57.7673 22.501 58.7197 22.501C59.8135 22.501 60.6042 22.9362 61.0918 23.8066H61.1191V22.5762H62.5547V29.8086C62.5547 30.6927 62.2425 31.3923 61.6182 31.9072C60.9984 32.4176 60.153 32.6729 59.082 32.6729ZM64.0723 22.5762H65.4873V23.8271H65.5146C65.6286 23.4124 65.8473 23.0889 66.1709 22.8564C66.4899 22.6195 66.8682 22.501 67.3057 22.501C67.5107 22.501 67.6748 22.5192 67.7979 22.5557V23.9434C67.6338 23.8796 67.4173 23.8477 67.1484 23.8477C66.6608 23.8477 66.2734 24.0049 65.9863 24.3193C65.6992 24.6292 65.5557 25.0462 65.5557 25.5703V30H64.0723V22.5762ZM71.3115 28.8926C71.863 28.8926 72.3232 28.7354 72.6924 28.4209C73.0615 28.1019 73.2461 27.6986 73.2461 27.2109V26.6299L71.4414 26.7529C70.416 26.8167 69.9033 27.1813 69.9033 27.8467C69.9033 28.1657 70.0309 28.4186 70.2861 28.6055C70.5413 28.7969 70.8831 28.8926 71.3115 28.8926ZM70.915 30.0752C70.1722 30.0752 69.5684 29.8747 69.1035 29.4736C68.6387 29.068 68.4062 28.5348 68.4062 27.874C68.4062 27.2269 68.6501 26.7188 69.1377 26.3496C69.6208 25.9805 70.3226 25.7663 71.2432 25.707L73.2461 25.5908V25.0166C73.2461 24.5928 73.1094 24.2669 72.8359 24.0391C72.5671 23.8158 72.1842 23.7041 71.6875 23.7041C71.2865 23.7041 70.9469 23.7998 70.6689 23.9912C70.3955 24.1826 70.2269 24.4401 70.1631 24.7637H68.7754C68.7982 24.1074 69.0876 23.5628 69.6436 23.1299C70.1995 22.6969 70.8945 22.4805 71.7285 22.4805C72.6354 22.4805 73.3577 22.7015 73.8955 23.1436C74.4378 23.5856 74.709 24.1735 74.709 24.9072V30H73.2939V28.7627H73.2598C73.0547 29.1637 72.7402 29.4827 72.3164 29.7197C71.8926 29.9567 71.4255 30.0752 70.915 30.0752ZM76.1992 22.5762H77.6143V23.834H77.6416C77.8102 23.4193 78.0837 23.0911 78.4619 22.8496C78.8356 22.6126 79.2663 22.4941 79.7539 22.4941C80.8249 22.4941 81.5176 22.9749 81.832 23.9365H81.8662C82.0622 23.4899 82.3652 23.1367 82.7754 22.877C83.1901 22.6217 83.6618 22.4941 84.1904 22.4941C84.9242 22.4941 85.5098 22.7174 85.9473 23.1641C86.3893 23.6061 86.6104 24.1986 86.6104 24.9414V30H85.1338V25.2969C85.1338 24.8092 85.0085 24.4333 84.7578 24.1689C84.5026 23.9001 84.1449 23.7656 83.6846 23.7656C83.2288 23.7656 82.8574 23.9183 82.5703 24.2236C82.2786 24.529 82.1328 24.9186 82.1328 25.3926V30H80.6768V25.1738C80.6768 24.7454 80.5492 24.4036 80.2939 24.1484C80.0342 23.8932 79.6878 23.7656 79.2549 23.7656C78.7992 23.7656 78.4232 23.9251 78.127 24.2441C77.8307 24.5586 77.6826 24.9596 77.6826 25.4473V30H76.1992V22.5762ZM88.0938 22.5762H89.5088V23.834H89.5361C89.7048 23.4193 89.9782 23.0911 90.3564 22.8496C90.7301 22.6126 91.1608 22.4941 91.6484 22.4941C92.7194 22.4941 93.4121 22.9749 93.7266 23.9365H93.7607C93.9567 23.4899 94.2598 23.1367 94.6699 22.877C95.0846 22.6217 95.5563 22.4941 96.085 22.4941C96.8187 22.4941 97.4043 22.7174 97.8418 23.1641C98.2839 23.6061 98.5049 24.1986 98.5049 24.9414V30H97.0283V25.2969C97.0283 24.8092 96.903 24.4333 96.6523 24.1689C96.3971 23.9001 96.0394 23.7656 95.5791 23.7656C95.1234 23.7656 94.752 23.9183 94.4648 24.2236C94.1732 24.529 94.0273 24.9186 94.0273 25.3926V30H92.5713V25.1738C92.5713 24.7454 92.4437 24.4036 92.1885 24.1484C91.9287 23.8932 91.5824 23.7656 91.1494 23.7656C90.6937 23.7656 90.3177 23.9251 90.0215 24.2441C89.7253 24.5586 89.5771 24.9596 89.5771 25.4473V30H88.0938V22.5762ZM103.078 23.6904C102.545 23.6904 102.103 23.8682 101.752 24.2236C101.396 24.5791 101.198 25.0417 101.157 25.6113H104.924C104.906 25.0326 104.728 24.5677 104.391 24.2168C104.053 23.8659 103.616 23.6904 103.078 23.6904ZM106.332 27.8262C106.227 28.4915 105.879 29.0361 105.286 29.46C104.694 29.8792 103.98 30.0889 103.146 30.0889C102.071 30.0889 101.219 29.7493 100.59 29.0703C99.9655 28.3958 99.6533 27.4775 99.6533 26.3154C99.6533 25.1533 99.9655 24.2236 100.59 23.5264C101.214 22.8291 102.046 22.4805 103.085 22.4805C104.106 22.4805 104.915 22.8109 105.512 23.4717C106.109 24.1279 106.407 25.0189 106.407 26.1445V26.6641H101.15V26.7529C101.15 27.3955 101.335 27.9105 101.704 28.2979C102.073 28.6898 102.563 28.8857 103.174 28.8857C103.607 28.8857 103.98 28.79 104.295 28.5986C104.609 28.4072 104.817 28.1497 104.917 27.8262H106.332ZM107.604 22.5762H109.019V23.8271H109.046C109.16 23.4124 109.379 23.0889 109.702 22.8564C110.021 22.6195 110.399 22.501 110.837 22.501C111.042 22.501 111.206 22.5192 111.329 22.5557V23.9434C111.165 23.8796 110.949 23.8477 110.68 23.8477C110.192 23.8477 109.805 24.0049 109.518 24.3193C109.23 24.6292 109.087 25.0462 109.087 25.5703V30H107.604V22.5762Z" fill="white"/>
<path d="M2.74084 2.77399L2.74187 2.77433L21.5469 9.04233L21.5477 9.04259L21.5473 9.04274L12.8143 12.5357L12.6378 12.6063L12.5528 12.7764L8.12777 21.6264L8.12771 21.6265L2.74084 2.77399Z" fill="#31B970" stroke="#64D598"/>
</svg>

<svg width="122" height="39" fill="none" xmlns="http://www.w3.org/2000/svg"><rect x="24.5" y="12.5" width="97" height="26" rx="13" fill="#31B970"/><rect x="24.5" y="12.5" width="97" height="26" rx="13" stroke="#64D598"/><path d="M39.21 20.136c.957 0 1.739.3 2.345.902.606.602.909 1.38.909 2.338 0 .962-.308 1.745-.923 2.351-.615.602-1.408.903-2.379.903H36.88V30h-1.531v-9.864h3.862Zm-2.331 5.209h1.928c.665 0 1.18-.171 1.545-.513.364-.346.546-.83.546-1.45 0-.623-.182-1.104-.546-1.442-.365-.341-.88-.512-1.545-.512h-1.928v3.917Zm6.781-2.769h1.415v1.251h.027a1.71 1.71 0 0 1 .657-.97 1.85 1.85 0 0 1 1.135-.356c.205 0 .369.018.492.055v1.387a1.825 1.825 0 0 0-.65-.095c-.487 0-.875.157-1.162.471-.287.31-.43.727-.43 1.251V30H43.66v-7.424Zm7.568 7.513c-1.076 0-1.93-.342-2.564-1.025-.633-.684-.95-1.61-.95-2.776 0-1.162.319-2.087.957-2.775.633-.689 1.486-1.033 2.556-1.033 1.072 0 1.924.342 2.557 1.026.634.688.95 1.615.95 2.782s-.316 2.092-.95 2.776c-.629.683-1.48 1.025-2.556 1.025Zm0-1.23c.628 0 1.12-.226 1.476-.677.351-.451.526-1.083.526-1.894 0-.811-.175-1.442-.526-1.893-.355-.456-.848-.684-1.477-.684-.628 0-1.12.228-1.476.684-.355.455-.533 1.086-.533 1.893 0 .807.177 1.438.533 1.894.355.45.848.676 1.477.676Zm7.847-.11c.602 0 1.087-.226 1.456-.677.365-.456.547-1.057.547-1.804 0-.752-.182-1.358-.547-1.819-.369-.46-.854-.69-1.456-.69-.597 0-1.075.228-1.435.683-.356.456-.534 1.064-.534 1.826 0 .756.178 1.36.534 1.811.36.447.838.67 1.435.67Zm.007 3.924c-.893 0-1.632-.192-2.215-.574-.583-.383-.911-.891-.984-1.525h1.497c.082.287.282.515.601.684.32.168.707.253 1.163.253.587 0 1.057-.144 1.408-.43.35-.288.526-.673.526-1.156V28.7h-.034c-.46.852-1.246 1.279-2.358 1.279-.93 0-1.678-.338-2.243-1.012-.57-.68-.854-1.582-.854-2.707 0-1.144.285-2.058.854-2.741.566-.68 1.324-1.019 2.277-1.019 1.093 0 1.884.435 2.372 1.306h.027v-1.23h1.436v7.232c0 .884-.313 1.583-.937 2.098-.62.51-1.465.766-2.536.766Zm4.99-10.097h1.415v1.251h.028c.114-.415.332-.738.656-.97a1.85 1.85 0 0 1 1.135-.356c.205 0 .369.018.492.055v1.387a1.826 1.826 0 0 0-.65-.095c-.487 0-.875.157-1.162.471-.287.31-.43.727-.43 1.251V30h-1.484v-7.424Zm7.24 6.317c.551 0 1.011-.158 1.38-.472a1.53 1.53 0 0 0 .554-1.21v-.581l-1.805.123c-1.025.064-1.538.428-1.538 1.094a.89.89 0 0 0 .383.758c.255.192.597.288 1.025.288Zm-.397 1.182c-.743 0-1.347-.2-1.812-.601-.464-.406-.697-.94-.697-1.6 0-.647.244-1.155.732-1.524.483-.37 1.185-.584 2.105-.643l2.003-.116v-.574c0-.424-.137-.75-.41-.978-.269-.223-.652-.335-1.148-.335-.401 0-.741.096-1.02.287a1.193 1.193 0 0 0-.505.773h-1.388c.023-.657.313-1.201.869-1.634.555-.433 1.25-.65 2.084-.65.907 0 1.63.221 2.168.664.542.442.813 1.03.813 1.763V30h-1.415v-1.237h-.034c-.205.4-.52.72-.944.957-.423.237-.89.355-1.401.355Zm5.284-7.499h1.415v1.258h.028c.168-.415.442-.743.82-.984a2.36 2.36 0 0 1 1.292-.356c1.07 0 1.764.48 2.078 1.442h.034c.196-.446.5-.8.91-1.059a2.644 2.644 0 0 1 1.414-.383c.734 0 1.32.223 1.757.67.442.442.663 1.035.663 1.777V30h-1.476v-4.703c0-.488-.126-.864-.376-1.128-.255-.269-.613-.403-1.073-.403-.456 0-.828.152-1.115.458-.291.305-.437.695-.437 1.169V30h-1.456v-4.826c0-.429-.128-.77-.383-1.026-.26-.255-.606-.382-1.04-.382-.455 0-.83.16-1.127.478-.296.315-.444.716-.444 1.203V30h-1.484v-7.424Zm11.895 0h1.415v1.258h.027c.169-.415.442-.743.82-.984a2.36 2.36 0 0 1 1.292-.356c1.071 0 1.764.48 2.079 1.442h.034c.196-.446.499-.8.909-1.059a2.644 2.644 0 0 1 1.415-.383c.734 0 1.32.223 1.757.67.442.442.663 1.035.663 1.777V30h-1.477v-4.703c0-.488-.125-.864-.376-1.128-.255-.269-.613-.403-1.073-.403-.456 0-.827.152-1.114.458-.292.305-.438.695-.438 1.169V30h-1.456v-4.826c0-.429-.127-.77-.382-1.026-.26-.255-.607-.382-1.04-.382-.455 0-.831.16-1.127.478-.297.315-.445.716-.445 1.203V30h-1.483v-7.424Zm14.984 1.114c-.533 0-.975.178-1.326.534-.356.355-.554.818-.595 1.387h3.767c-.018-.578-.196-1.043-.533-1.394-.338-.351-.775-.527-1.313-.527Zm3.254 4.136c-.105.665-.453 1.21-1.046 1.634-.592.42-1.306.629-2.14.629-1.075 0-1.927-.34-2.556-1.019-.624-.674-.937-1.593-.937-2.755s.313-2.091.937-2.789c.624-.697 1.456-1.046 2.495-1.046 1.021 0 1.83.33 2.427.992.597.656.895 1.547.895 2.672v.52h-5.257v.089c0 .642.185 1.157.554 1.545.369.392.859.588 1.47.588.433 0 .806-.096 1.121-.287a1.36 1.36 0 0 0 .622-.773h1.415Zm1.272-5.25h1.415v1.251h.027a1.71 1.71 0 0 1 .656-.97 1.85 1.85 0 0 1 1.135-.356c.205 0 .369.018.492.055v1.387a1.843 1.843 0 0 0-.649-.095c-.488 0-.875.157-1.162.471-.288.31-.431.727-.431 1.251V30h-1.483v-7.424Z" fill="#fff"/><path d="M2.74 2.774h.002l18.805 6.268-8.733 3.494-.176.07-.085.17-4.425 8.85L2.74 2.774Z" fill="#31B970" stroke="#64D598"/></svg>
